T: Tribute To Michael Dwyer
M: 4/4
L: 1/8
K: Emin
EBGB AFGF | EBGB ADFA | Be (3efe defe | ^cABG AFGF |
EB,EF GABG | ADFA d2 ed | ^cA A2 GE E2 | B,EDF E2-E2 :|
G3 A BABd | edBA GE E2 | G2 BG FAde | fgfd e3 f |
gfed cBAG | FGAF Dfed |^cA A2 GE E2 | B,EDF E2-E2 :||
